remix/Design/pencil-fill.svg

<svg viewBox="0 0 24 24" fill="currentColor" xmlns="http://www.w3.org/2000/svg"><path d="M12.8995 6.85453L17.1421 11.0972L7.24264 20.9967H3V16.754L12.8995 6.85453ZM14.3137 5.44032L16.435 3.319C16.8256 2.92848 17.4587 2.92848 17.8492 3.319L20.6777 6.14743C21.0682 6.53795 21.0682 7.17112 20.6777 7.56164L18.5563 9.68296L14.3137 5.44032Z"/></svg>

<svg viewBox="0 0 24 24" xmlns="http://www.w3.org/2000/svg"><path fill="none" d="M0 0h24v24H0Z"/><path d="M12.9 6.858l4.24 4.24 -9.9 9.89H2.99v-4.25l9.9-9.9Zm1.41-1.42l2.12-2.122v0c.39-.4 1.02-.4 1.41 0l2.82 2.82v0c.39.39.39 1.02 0 1.41l-2.122 2.12 -4.25-4.242Z"/></svg>
